other/linkeye.svg

<svg width="48" height="48" version="1.1" viewBox="0 0 48 48" xmlns="http://www.w3.org/2000/svg">
 <defs>
  <style>.a{fill:none;stroke:#fff;stroke-linecap:round;stroke-linejoin:round;}</style>
  <style>.a{fill:none;stroke:#fff;stroke-linecap:round;stroke-linejoin:round;}</style>
 </defs>
 <g fill="none" stroke="#fff" stroke-linecap="round" stroke-linejoin="round">
  <path d="m14.719 14.719-9.2793 9.2812 9.2793 9.2812 9.2812-9.2812-9.2812-9.2812zm9.2812 9.2812 9.2812 9.2812 9.2793-9.2812-9.2793-9.2812-9.2812 9.2812z" stop-color="#000000" style="paint-order:markers fill stroke"/>
  <path d="m12.304 24 2.4153-2.4153 2.4153 2.4153-2.4153 2.4153z" stop-color="#000000" style="paint-order:markers fill stroke"/>
  <path d="m30.865 24 2.4153-2.4153 2.4153 2.4153-2.4153 2.4153z" stop-color="#000000" style="paint-order:markers fill stroke"/>
 </g>
</svg>

<svg xmlns="http://www.w3.org/2000/svg" viewBox="0 0 48 48"><defs><style>.a{fill:none;stroke:#fff;stroke-linecap:round;stroke-linejoin:round;}</style></defs><path class="a" d="M14.719,14.719,5.44,24l9.2793,9.2812L24,24ZM24,24l9.2812,9.2812L42.5607,24,33.2814,14.719Z"/><path class="a" d="M12.304,24l2.4153-2.4153L17.1346,24l-2.4153,2.4153Z"/><path class="a" d="M30.865,24,33.28,21.5847,35.6956,24,33.28,26.4153Z"/></svg>
